X:11
T:Sweet Georgia Brown
C: Django Reinhardt
N: Transcribed by Kim Davis
R:bluegrass
L:1/8
Q:1/4=250
M:4/4
K:D
z2 =F2 E2 ^D2 | "D"D2 E2 F2 D2 | A2 F2 B2 A2 | "D7"d2 dd A2 F2 | DD =C2 B,2 A,2 | 
"G"DD E2 =F2 D2 | A2 =F2 B2 A2 | "G7"d2 dd B2 A2 | G2 =F2 E2 D2 | "C"=CC D2 E2 C2 | 
G2 E2 A2 G2 | "C7"=c2 c2 AG EE | =C2 C2 D2 =F2 | "F"AA =c2 A4 | A2 =C2 D2 =F2 | 
AA =c2 A2 G^G | "A7"AA G2 =F2 E2 | "D"DD E2 F2 D2 | A2 F2 B2 A2 | "D7"d2 dd A2 F2 | 
DD =C2 B,2 A,2 | "G"DD E2 =F2 D2 | A2 =F2 B2 A2 | d2 dd B2 A2 | G2 GG G2 G^G | 
"Dm"Ad A2 A2 A2 | "A7"G2 E2 A2 G^G | "Dm"Ad A2 A2 A2 | "A7"G2 E2 A4 | "F"=CC D2 =F2 A2 | 
"D7"=c2 ^c2 d2 A2 | "G7"GG A2 "C7"=c2 A2 | "F"=F8 | 

